client/src/client/images/move-column-left.svg

<?xml version="1.0" encoding="UTF-8"?>
<svg version="1.1" viewBox="0 0 16 16" xmlns="http://www.w3.org/2000/svg" xmlns:cc="http://creativecommons.org/ns#" xmlns:dc="http://purl.org/dc/elements/1.1/" xmlns:rdf="http://www.w3.org/1999/02/22-rdf-syntax-ns#" xmlns:xlink="http://www.w3.org/1999/xlink">
<defs>
<mask id="b" maskUnits="userSpaceOnUse">
<path d="m-1-1h18v18h-18z" fill="#fff"/>
<path d="m2 5.5h5v-3.5l8 6-8 6-5e-6 -3.5h-5z" stroke-width="0"/>
</mask>
<mask id="a" maskUnits="userSpaceOnUse">
<path d="m-1-1h8v18h-8z" fill="#fff"/>
<path d="m2 5.5h5v-3.5l8 6-8 6-5e-6 -3.5h-5z" stroke-width="0"/>
</mask>
</defs>
<metadata>
<rdf:RDF>
<cc:Work rdf:about="">
<dc:format>image/svg+xml</dc:format>
<dc:type rdf:resource="http://purl.org/dc/dcmitype/StillImage"/>
<dc:title/>
</cc:Work>
</rdf:RDF>
</metadata>
<g>
<path transform="matrix(-1,0,0,1,16,0)" d="m0 0v16h16v-16zm1 1h4v4h-4zm5 0h4v4h-4zm5 0h4v4h-4zm-10 5h4v4h-4zm5 0h4v4h-4zm5 0h4v4h-4zm-10 5h4v4h-4zm5 0h4v4h-4zm5 0h4v4h-4z" color="#000000" color-rendering="auto" dominant-baseline="auto" fill="#aabcc8" fill-opacity=".49727" image-rendering="auto" mask="url(#b)" shape-rendering="auto" solid-color="#000000" stop-color="#000000" style="font-feature-settings:normal;font-variant-alternates:normal;font-variant-caps:normal;font-variant-east-asian:normal;font-variant-ligatures:normal;font-variant-numeric:normal;font-variant-position:normal;font-variation-settings:normal;inline-size:0;isolation:auto;mix-blend-mode:normal;paint-order:stroke fill markers;shape-margin:0;shape-padding:0;text-decoration-color:#000000;text-decoration-line:none;text-decoration-style:solid;text-indent:0;text-orientation:mixed;text-transform:none;white-space:normal"/>
</g>
<g>
<path d="m16 0v16h-16v-16zm-1 1h-14v14h14z" color="#000000" color-rendering="auto" dominant-baseline="auto" fill="#aabcc8" image-rendering="auto" shape-rendering="auto" solid-color="#000000" stop-color="#000000" style="font-feature-settings:normal;font-variant-alternates:normal;font-variant-caps:normal;font-variant-east-asian:normal;font-variant-ligatures:normal;font-variant-numeric:normal;font-variant-position:normal;font-variation-settings:normal;inline-size:0;isolation:auto;mix-blend-mode:normal;paint-order:stroke fill markers;shape-margin:0;shape-padding:0;text-decoration-color:#000000;text-decoration-line:none;text-decoration-style:solid;text-indent:0;text-orientation:mixed;text-transform:none;white-space:normal"/>
</g>
<g>
<path transform="matrix(-1,0,0,1,16,0)" x="1.0327313" y="1.0327332" width="3.9345367" height="13.93453" d="m1.0327 1.0327h3.9345v13.935h-3.9345z" fill="#b1ddf9" mask="url(#a)" stroke="#51b5e3" stroke-width="2.0655" style="paint-order:stroke fill markers"/>
</g>
<g>
<path d="m13 6.5h-5l-5e-6 -2.5-5 4 5 4 5e-6 -2.5h5z" fill="#51b5e3" stroke-width="0"/>
</g>
</svg>

<svg xmlns="http://www.w3.org/2000/svg" width="16" height="16"><defs><mask maskUnits="userSpaceOnUse" id="b"><path d="M-1-1h18v18H-1z" fill="#fff"/><path d="M2 5.5h5V2l8 6-8 6v-3.5H2z" stroke="#000" stroke-width="0"/></mask><mask maskUnits="userSpaceOnUse" id="c"><path d="M-1-1h8v18h-8z" fill="#fff"/><path d="M2 5.5h5V2l8 6-8 6v-3.5H2z" stroke="#000" stroke-width="0"/></mask><linearGradient id="a"><stop offset="0" stop-color="#51b5e3" stop-opacity=".247"/><stop offset="1" stop-color="#51b5e3"/></linearGradient></defs><path style="line-height:normal;font-variant-ligatures:normal;font-variant-position:normal;font-variant-caps:normal;font-variant-numeric:normal;font-variant-alternates:normal;font-variant-east-asian:normal;font-feature-settings:normal;font-variation-settings:normal;text-indent:0;text-align:start;text-decoration-line:none;text-decoration-style:solid;text-decoration-color:#000;text-transform:none;text-orientation:mixed;white-space:normal;shape-padding:0;shape-margin:0;inline-size:0;isolation:auto;mix-blend-mode:normal;solid-color:#000;solid-opacity:1" d="M0 0v16h16V0zm1 1h4v4H1zm5 0h4v4H6zm5 0h4v4h-4zM1 6h4v4H1zm5 0h4v4H6zm5 0h4v4h-4zM1 11h4v4H1zm5 0h4v4H6zm5 0h4v4h-4z" mask="url(#b)" transform="matrix(-1 0 0 1 16 0)" color="#000" font-weight="400" font-family="sans-serif" overflow="visible" fill="#aabcc8" fill-opacity=".497" paint-order="stroke fill markers"/><path style="line-height:normal;font-variant-ligatures:normal;font-variant-position:normal;font-variant-caps:normal;font-variant-numeric:normal;font-variant-alternates:normal;font-variant-east-asian:normal;font-feature-settings:normal;font-variation-settings:normal;text-indent:0;text-align:start;text-decoration-line:none;text-decoration-style:solid;text-decoration-color:#000;text-transform:none;text-orientation:mixed;white-space:normal;shape-padding:0;shape-margin:0;inline-size:0;isolation:auto;mix-blend-mode:normal;solid-color:#000;solid-opacity:1" d="M16 0v16H0V0zm-1 1H1v14h14z" color="#000" font-weight="400" font-family="sans-serif" overflow="visible" fill="#aabcc8" paint-order="stroke fill markers"/><path mask="url(#c)" d="M1.033 1.033h3.934v13.934H1.033z" transform="matrix(-1 0 0 1 16 0)" fill="#b1ddf9" stroke="#51b5e3" stroke-width="2.065" paint-order="stroke fill markers"/><path d="M13 6.5H8V4L3 8l5 4V9.5h5z" fill="#51b5e3"/></svg>
